X:63
T:Jigs simple chords 266
M:3/4
L:1/8
K:Em
[G2G,2B,2D2] FG2A | [B2G,2B,2D2] AB2c | [dG,B,D]e dB AG | [A6D,6F,6A,6C6] | [A2D,2F,2A,2C2] ^GA2B |
[A2D,2F,2A,2C2] FD2B | [AA,^CEG]B AE FG | [F6D,6F,6A,6C6] | [G2G,2B,2D2] FG2A |
[B2G,2B,2D2] AB2c | [dG,B,D=F]e dB AG | [e6C,6E,6G,6] | [g2G,2B,2D2] de2B |
[dA,CE]c BA2e | [dD,F,A,C]c BA GF | [G6G,6B,6D6] | [E2E,2G,2B,2] BB2c |
[B2B,2D2F2] AG2F | [G2E,2G,2B,2] AB2^c | [d5D,5F,5A,5]^d | [e2E,2G,2B,2] fg2e |
[f2D,2F,2A,2] dd2f | [e2E,2G,2B,2] BB2d | [e5E,5G,5B,5]f | [g2G,2B,2D2] fe2d |
[B2G,2B,2D2] dG2B | [c2C,2E,2G,2] Bc2e | [g5A,5C5E5]d | [g2G,2B,2D2] de2B |
[dA,CE]c BA2e | [dD,F,A,C]c BA GF | [G6G,6B,6D6] |


